svg/300/sharp/flight_class-fill.svg

<svg xmlns="http://www.w3.org/2000/svg" width="48" height="48" viewBox="0 -960 960 960"><path d="M492.309-460.001v-319.998h207.69v319.998h-207.69Zm207.69 200h-367.69L220.001-641.077v-138.922h45.384v131.076l101.538 343.538h333.076v45.384Zm-371.921 120v-45.384h371.536v45.384H328.078Z"/></svg>

<svg xmlns="http://www.w3.org/2000/svg" width="48" height="48" viewBox="0 -960 960 960"><path d="M492.31-460v-320H700v320H492.31ZM700-260H332.31L220-641.08V-780h45.39v131.08l101.53 343.53H700V-260ZM328.08-140v-45.39h371.53V-140H328.08Z"/></svg>
